images/ico-hand-arrow-down.svg

<svg xmlns="http://www.w3.org/2000/svg" width="48" height="55" fill="none" viewBox="0 0 48 55"><g clip-path="url(#clip0_1_2)"><path fill="#000638" fill-rule="evenodd" d="M4.91057 38.3244C4.67182 38.1861 4.50267 37.9415 4.60967 37.6823C4.94045 36.8773 5.29376 36.0808 5.66739 35.2951C6.43747 32.7375 7.50519 30.3108 8.85161 28.0546C7.41225 29.9541 6.2182 32.0275 5.29772 34.2258C4.75721 35.5147 4.14868 37.3062 4.80062 38.8824C4.83428 38.6957 4.87197 38.5098 4.91057 38.3244ZM15.1838 21.2176C13.6758 22.8403 12.3135 24.5927 11.1129 26.4542C12.8298 24.0158 14.7438 21.7778 16.8498 19.8175C16.2816 20.2655 15.7263 20.733 15.1838 21.2176ZM27.4798 15.4935C27.8604 15.3482 28.2473 15.2059 28.6357 15.0699C24.7971 16.0449 21.1911 17.7751 18.0285 20.1592C15.5042 22.0673 13.3314 24.3348 11.4846 26.8642C13.1314 24.924 14.9592 23.1451 16.9434 21.5517C20.1197 18.998 23.6743 16.9544 27.4793 15.4944L27.4798 15.4935ZM24.8859 15.0318C27.6589 14.2112 30.5134 13.6961 33.3983 13.4959C30.4426 13.4256 27.5599 14.0294 24.8854 15.0305L24.8859 15.0318ZM37.8566 14.6828C37.0748 14.3204 36.2747 13.9991 35.4596 13.7201C35.5244 13.929 35.5522 14.1477 35.5414 14.3662C36.3158 14.4501 37.0877 14.5559 37.8562 14.6837L37.8566 14.6828ZM35.4555 9.96559C34.848 9.60385 34.2414 9.23583 33.6356 8.866C33.592 8.93139 33.5364 8.98795 33.4718 9.03276C33.7169 9.15299 33.9621 9.2777 34.2064 9.39974L35.455 9.96649L35.4555 9.96559ZM12.4039 22.5419C13.1765 21.8512 13.9833 21.1979 14.8208 20.5803C15.2596 20.1843 15.7088 19.8001 16.1681 19.4281C22.0501 14.6775 31.1154 10.6144 39.8166 14.1275C38.979 13.728 38.1506 13.2952 37.3235 12.8807C34.8123 11.6254 32.3117 10.3407 29.8202 9.03493C29.191 8.7049 29.4925 7.89149 30.1395 8.14469L31.1479 8.53923C31.2133 8.54301 31.2775 8.5572 31.3384 8.58132C31.6263 8.69315 31.9116 8.8104 32.1982 8.92495C31.8841 8.74964 31.5708 8.57252 31.2604 8.38462C30.6791 8.03312 30.879 7.30524 31.4709 7.43244C31.5946 7.4006 31.7257 7.41434 31.8401 7.4712C32.2813 7.6683 32.7207 7.86901 33.16 8.06972C37.2366 9.65514 41.2613 11.4052 45.229 13.342C45.3766 13.4057 45.4932 13.525 45.5536 13.6741C45.7982 13.7885 45.9824 14.0526 45.9404 14.2707C46.4127 14.2655 46.8645 14.9187 46.4012 15.163C43.5908 16.6489 40.7535 18.112 37.6939 19.1355C36.0209 19.9606 34.3076 20.7013 32.5604 21.3547C32.0514 21.544 31.6596 20.7278 32.1518 20.5249C32.3303 20.4527 32.5069 20.3774 32.6854 20.303C32.3734 20.2694 32.1875 19.9437 32.2188 19.6738C31.9208 19.7644 31.6242 19.8589 31.3271 19.9499C30.7302 20.1327 30.3002 19.2363 30.8618 19.0067L39.6582 15.4003C39.4678 15.3815 39.2778 15.3617 39.0892 15.346C35.2275 15.2148 31.5433 16.2351 28.1717 17.4899C24.4856 18.8566 21.0292 20.777 17.9216 23.1849C12.627 27.2983 8.60302 32.7012 6.14163 38.9559C5.91619 39.6827 5.70879 40.415 5.51959 41.152C5.49123 41.2626 5.39832 41.3412 5.28143 41.3819C5.21384 41.5956 5.14174 41.8071 5.07729 42.0213C4.92908 42.5178 4.02283 42.2274 4.08757 41.6921C4.12867 41.3528 4.17695 41.0146 4.22661 40.6782C2.01341 37.7923 4.04085 34.034 5.28249 31.6515C7.08605 28.193 9.50399 25.1329 12.4039 22.5419Z" clip-rule="evenodd"/></g><defs><clipPath id="clip0_1_2"><path fill="#fff" d="M0 0H44V31H0z" transform="rotate(115.5 9.434 6.631)scale(1 -1)"/></clipPath></defs></svg>

<svg xmlns="http://www.w3.org/2000/svg" width="48" height="55" fill="none" viewBox="0 0 48 55"><g clip-path="url(#a)"><path fill="#000638" fill-rule="evenodd" d="M4.91 38.324c-.238-.138-.407-.383-.3-.642q.496-1.208 1.057-2.387a32.3 32.3 0 0 1 3.185-7.24 28.4 28.4 0 0 0-3.554 6.17c-.54 1.29-1.15 3.081-.497 4.657q.05-.279.11-.558m10.274-17.106a38 38 0 0 0-4.071 5.236c1.717-2.438 3.63-4.676 5.737-6.637a35 35 0 0 0-1.666 1.4m12.296-5.725q.571-.218 1.156-.423a29.8 29.8 0 0 0-10.607 5.09c-2.525 1.907-4.698 4.175-6.544 6.704a40 40 0 0 1 5.458-5.312 39.3 39.3 0 0 1 10.536-6.058m-2.594-.461a39.7 39.7 0 0 1 8.512-1.536c-2.955-.07-5.838.533-8.513 1.534zm12.97-.35a25 25 0 0 0-2.396-.962c.064.209.092.428.081.646q1.163.126 2.315.318zm-2.4-4.716q-.912-.544-1.82-1.1a.6.6 0 0 1-.164.167q.368.182.734.367l1.249.566M12.404 22.542a33 33 0 0 1 2.417-1.962q.659-.594 1.347-1.152c5.882-4.75 14.947-8.814 23.649-5.3-.838-.4-1.666-.833-2.493-1.247a440 440 0 0 1-7.504-3.846c-.629-.33-.328-1.144.32-.89l1.008.394q.099.006.19.042c.288.112.574.23.86.344a31 31 0 0 1-.938-.54c-.58-.352-.381-1.08.21-.953a.53.53 0 0 1 .37.04q.66.295 1.32.598a158 158 0 0 1 12.069 5.272.6.6 0 0 1 .325.332c.244.115.428.379.386.597.473-.006.925.648.461.892-2.81 1.486-5.648 2.949-8.707 3.973a56 56 0 0 1-5.134 2.219c-.509.189-.9-.627-.408-.83l.533-.222c-.312-.034-.498-.36-.466-.63l-.892.277c-.597.183-1.027-.714-.465-.943l8.796-3.607q-.285-.029-.569-.054c-3.861-.131-7.546.89-10.917 2.144a38.7 38.7 0 0 0-10.25 5.695c-5.295 4.113-9.319 9.516-11.78 15.77q-.339 1.092-.622 2.197c-.029.11-.122.19-.239.23-.067.214-.14.425-.204.64-.148.496-1.054.205-.99-.33q.064-.51.14-1.014c-2.214-2.886-.186-6.644 1.055-9.026 1.804-3.459 4.222-6.52 7.122-9.11" clip-rule="evenodd"/></g><defs><clipPath id="a"><path fill="#fff" d="M19.48.97.54 40.684 28.52 54.03l18.942-39.714z"/></clipPath></defs></svg>
